X:0976
T:A March,
C:by J.H.
M:C
L:1/8
Q:1/2=80
I: || ||
Z:Jack Campin * www.campin.me.uk * 2009
K:D
DE      |F2AF D2FA|d2ec A3 d|cedB AFDF|E2EE E2
DE      |FGAF D2FA|Bcec A3 g|fdag f2e2|d2dd d2||
d/e/f/g/|agaf d2df|edec A2ef|gfed bagf|e2ee e2
ag      |f2dB A2ef|gfbe B3 g|fbad f2e2|d2dd d2|]

